X: 189
T: My Polly
B: australian dance tunes
M:3/4
L:1/8
R: Waltz
Q: 1/4=100
K:D
V:1 
d4 c2|B6|sB4 sA2|F6|A2 F2 D2|A,4 B,2|C6-|C4 z2|!
E4 ^D2|E6|sF4 s^E2|F6|sF4 sd2|c4 B2|A6-|A2 B2 c2|!
d4 c2|B6|sB4 sA2|F6|sF2 E2 sD2|sF2 G2 sA2|B6-|B2 sB2 sc2|!
sd4 sB2|sG4 sE2|A6-|A2 s^G2 sA2| B6|c6|d6|d2 z4|:(3ded|!
c2 z2 g2|g2 z2 (3BcB|A2 z2 f2|f2 z2 (3ABA|G2 z2 e2|e2 z2 (3GAG|F2 B2 F2|A2 z2 (3ded|!
c2 z2 f2| f2 z2 (3BcB|A2 z2 f2| f2 z2 f2|ee e2 c2|dd d2 ^G2|A6|1A2 z2:|2"        D.C."A2 z4||
% abcbook-tune_id 62a078508c67c3fd2464fd29


% abcbook-boost 0
% abcbook-tablature 
% abcbook-transpose 
% abcbook-lastupdated 1654683750257
% abcbook-soundfonts 
% abcbook-repeats 1


